config.ocio
# OpenColorIO configuration file for Blender
#
# ACEScg and ACES2065-1 spaces using OpenColorIO's BuiltinTransform
#
# Filmic Dynamic Range LUT configuration crafted by Troy James Sobotka with
# special thanks and feedback from Guillermo, Claudio Rocha, Bassam Kurdali,
# Eugenio Pignataro, Henri Hebeisen, Jason Clarke, Haarm-Peter Duiker, Thomas
# Mansencal, and Timothy Lottes.
#
# Based on original AgX by Troy Sobotka: https://github.com/sobotka/AgX https://github.com/sobotka/SB2383-Configuration-Generation
# Further Developed by Zijun Eary Zhou法纤净, Mark Faderbauer, and Sakari Kapanen
# Repository for AgX config: https://github.com/EaryChow/AgX
#
# Further expanded upon by Genco Uney.
# PixelManager OCIO config https://github.com/Joegenco/PixelManager/
# With contributions from Nihal Rahman.
#
# Modified for General Purpose Softwares Such As Maya And Nuke by Roland Vyens
# Github of this OCIO: https://github.com/RolandVyens/PixelManager-Super-OCIO
#
# ---- Additional sources ----
# OpenDRT and JzDT from Jed Smith - Jedy Pod, https://github.com/jedypod/open-display-transform
# Using ACES 1.3 via OCIO 2.1 https://github.com/AcademySoftwareFoundation/OpenColorIO-Config-ACES/releases/tag/v2.0.0
# Filmlight TCAMv2 for Baselight via Truelight Colour Spaces OCIO config https://www.filmlight.ltd.uk/support/customer-login/colourspaces/colourspaces.php
# JP-2499DRT from Juan Pablo Zambrano https://github.com/JuanPabloZambrano/DCTL
# Khronos "PBR Neutrar" from KhronosGroup https://github.com/KhronosGroup/ToneMapping/tree/main
# See ocio-license.txt for details.

ocio_profile_version: 2.0
# ACES LMT now uses a baked LUT, allowing OCIO 2.0 but with minor inaccuracy.
# Nuke users may switch this to 2.0 and remove "LOOK" starting with line 2389 "ACES - 1.3 Reference Gamut Compression" entirely. 

environment:
  {}
search_path: "luts:filmic:ARRI:Canon:RWG:TCAMv2:OpenDRT:2499DRT:Sony:BMD"
strictparsing: true
luma: [0.2126, 0.7152, 0.0722]

description: RRT version ut33

roles:
  reference: Linear CIE-XYZ E

  # Internal scene linear space
  scene_linear: Linear Rec.709
  rendering: Linear Rec.709

  # Default color space for byte image
  default_byte: sRGB

  # Default color space for float images
  default_float: Linear Rec.709

  # Default color space sequencer is working in
  default_sequencer: sRGB

  # Distribution of colors in color picker
  color_picking: sRGB

  # Non-color data
  data: Non-Color

  # For interop between configs, and to determine XYZ for rendering
  aces_interchange: ACES2065-1
  cie_xyz_d65_interchange: Linear CIE-XYZ D65

  # Specified by OCIO, not used in Blender
  color_timing: AgX Log
  compositing_log: AgX Log
  default: sRGB
  matte_paint: Linear Rec.709
  texture_paint: Linear Rec.709
  
# When using Spectral Renderer, Change XYZ role to I-E
#  XYZ: Linear CIE-XYZ D65

file_rules:
  - !<Rule> {name: PBRMaps, regex: ".*(_(Normal|normal|Roughness|roughness|Metallic|metallic|Metal|metal|Height|height|Displacement|displacement|AmbientOcclusion|ambientOcclusion|AO|ao|Specular|specular|Glossiness|glossiness|Gloss|gloss|Cavity|cavity|Subsurface|subsurface|SubsurfaceScattering|subsurfaceScattering|SSS|sss|Alpha|alpha|Opacity|opacity|_nm|_rm|_mm|_hm|_dm|_ao|_sm|_gm|_cm|_ss|_sssm|_sss|_am|_om)).*", colorspace: Non-Color}
  - !<Rule> {name: OpenEXR, extension: "exr", pattern: "*", colorspace: Linear Rec.709}
  - !<Rule> {name: hdr, extension: "hdr", pattern: "*", colorspace: Linear Rec.709}
  - !<Rule> {name: ColorSpaceNamePathSearch}
  - !<Rule> {name: Default, colorspace: sRGB}
 
displays: 
  sRGB:
    - !<View> {name: ACES, colorspace: ACES sRGB}
    - !<View> {name: ACES Reference GamutComp, colorspace: ACES LMT sRGB}
    - !<View> {name: AgX Punchy, colorspace: AgX Base sRGB, look: AgX - Punchy}
    - !<View> {name: AgX Medium High Contrast, colorspace: AgX Base sRGB, look: AgX - Medium High Contrast}
    - !<View> {name: AgX, colorspace: AgX Base sRGB}
    - !<View> {name: AgX Kraken, colorspace: AgX Base Kraken sRGB}
    - !<View> {name: AgX Kraken 800T, colorspace: AgX Base Kraken 800T sRGB}
    - !<View> {name: AgX-Resolve Default, colorspace: AgX Resolve Default sRGB}
    - !<View> {name: AgX-Resolve Bombastic, colorspace: AgX Resolve Bombastic sRGB}
    - !<View> {name: AgX NR2383, colorspace: AgX NR2383 sRGB}
    - !<View> {name: JP2499DRT, colorspace: 2499DRT Base sRGB}
    - !<View> {name: Filmic, colorspace: Filmic sRGB}
    - !<View> {name: TCAMv2, colorspace: TCAMv2 sRGB}
    - !<View> {name: OpenDRT, colorspace: OpenDRT sRGB}
    - !<View> {name: JzDT, colorspace: JzDT sRGB}
    - !<View> {name: sRGB, colorspace: sRGB}
    - !<View> {name: UnrealEngine, colorspace: UnrealEngine Viewport sRGB}
    - !<View> {name: Khronos Neutral, colorspace: Khronos Neutral sRGB}
    - !<View> {name: ARRI K1S1, colorspace: ARRI K1S1 sRGB}
    - !<View> {name: ARRI ALF2, colorspace: ARRI ALF2 sRGB}
    - !<View> {name: ARRI Reveal, colorspace: ARRI Reveal sRGB}
    - !<View> {name: RED IPP2, colorspace: RED IPP2 sRGB}
    - !<View> {name: Sony S-Cinetone, colorspace: Sony S-Cinetone sRGB}
    - !<View> {name: Blackmagic Extended Video, colorspace: Blackmagic Extended Video sRGB}
    - !<View> {name: Canon 201911, colorspace: Canon 201911 sRGB}
    - !<View> {name: False Color, colorspace: AgX False Color Rec.709}
    - !<View> {name: None, colorspace: Non-Color}
  Display P3:
    - !<View> {name: ACES, colorspace: ACES Display P3}
    - !<View> {name: ACES Reference GamutComp, colorspace: ACES LMT Display P3}
    - !<View> {name: AgX Punchy, colorspace: AgX Base Display P3, look: AgX - Punchy}
    - !<View> {name: AgX Medium High Contrast, colorspace: AgX Base Display P3, look: AgX - Medium High Contrast}
    - !<View> {name: AgX, colorspace: AgX Base Display P3}
    - !<View> {name: AgX Kraken, colorspace: AgX Base Kraken Display P3}
    - !<View> {name: AgX Kraken 800T, colorspace: AgX Base Kraken 800T Display P3}
    - !<View> {name: AgX-Resolve Default, colorspace: AgX Resolve Default Display P3}
    - !<View> {name: AgX-Resolve Bombastic, colorspace: AgX Resolve Bombastic Display P3}
    - !<View> {name: AgX NR2383, colorspace: AgX NR2383 Display P3}
    - !<View> {name: JP2499DRT, colorspace: 2499DRT Base Display P3}
    - !<View> {name: TCAMv2, colorspace: TCAMv2 Display P3}
    - !<View> {name: OpenDRT, colorspace: OpenDRT Display P3}
    - !<View> {name: JzDT, colorspace: JzDT Display P3}
    - !<View> {name: Display P3, colorspace: Display P3}
    - !<View> {name: UnrealEngine, colorspace: UnrealEngine Viewport Display P3}
    - !<View> {name: Khronos Neutral, colorspace: Khronos Neutral Display P3}
    - !<View> {name: ARRI K1S1, colorspace: ARRI K1S1 Display P3}
    - !<View> {name: ARRI ALF2, colorspace: ARRI ALF2 Display P3}
    - !<View> {name: ARRI Reveal, colorspace: ARRI Reveal Display P3}
    - !<View> {name: RED IPP2, colorspace: RED IPP2 Display P3}
    - !<View> {name: Sony S-Cinetone, colorspace: Sony S-Cinetone Display P3}
    - !<View> {name: Blackmagic Extended Video, colorspace: Blackmagic Extended Video Display P3}
    - !<View> {name: Canon 201911, colorspace: Canon 201911 Display P3}
    - !<View> {name: False Color, colorspace: AgX False Color P3}
    - !<View> {name: None, colorspace: Non-Color}
  Rec.1886:
    - !<View> {name: ACES, colorspace: ACES Rec.1886}
    - !<View> {name: ACES Reference GamutComp, colorspace: ACES LMT Rec.1886}
    - !<View> {name: AgX Punchy, colorspace: AgX Base Rec.1886, look: AgX - Punchy}
    - !<View> {name: AgX Medium High Contrast, colorspace: AgX Base Rec.1886, look: AgX - Medium High Contrast}
    - !<View> {name: AgX, colorspace: AgX Base Rec.1886}
    - !<View> {name: AgX Kraken, colorspace: AgX Base Kraken Rec.1886}
    - !<View> {name: AgX Kraken, colorspace: AgX Base Kraken 800T Rec.1886}
    - !<View> {name: AgX-Resolve Default, colorspace: AgX Resolve Default Rec.1886}
    - !<View> {name: AgX-Resolve Bombastic, colorspace: AgX Resolve Bombastic Rec.1886}
    - !<View> {name: AgX NR2383, colorspace: AgX NR2383 Rec.1886}
    - !<View> {name: JP2499DRT, colorspace: 2499DRT Base Rec.1886}
    - !<View> {name: TCAMv2, colorspace: TCAMv2 Rec.1886}
    - !<View> {name: OpenDRT, colorspace: OpenDRT Rec.1886}
    - !<View> {name: JzDT, colorspace: JzDT Rec.1886}
    - !<View> {name: Rec.1886, colorspace: Rec.1886}
    - !<View> {name: UnrealEngine, colorspace: UnrealEngine Viewport Rec.1886}
    - !<View> {name: Khronos Neutral, colorspace: Khronos Neutral Rec.1886}
    - !<View> {name: ARRI K1S1, colorspace: ARRI K1S1 Rec.1886}
    - !<View> {name: ARRI ALF2, colorspace: ARRI ALF2 Rec.1886}
    - !<View> {name: ARRI Reveal, colorspace: ARRI Reveal Rec.1886}
    - !<View> {name: RED IPP2, colorspace: RED IPP2 Rec.1886}
    - !<View> {name: Sony S-Cinetone, colorspace: Sony S-Cinetone Rec.1886}
    - !<View> {name: Blackmagic Extended Video, colorspace: Blackmagic Extended Video Rec.1886}
    - !<View> {name: Canon 201911, colorspace: Canon 201911 Rec.1886}
    - !<View> {name: False Color, colorspace: AgX False Color Rec.709}
    - !<View> {name: None, colorspace: Non-Color}
  AdobeRGB:
    - !<View> {name: Standard, colorspace: AdobeRGB EOTF 2.2}
    - !<View> {name: AgX, colorspace: AgX Base AdobeRGB}
    - !<View> {name: AgX Kraken, colorspace: AgX Base Kraken AdobeRGB}
    - !<View> {name: AgX Kraken, colorspace: AgX Base Kraken 800T AdobeRGB}
    - !<View> {name: AgX-Resolve Default, colorspace: AgX Resolve Default AdobeRGB}
    - !<View> {name: AgX-Resolve Bombastic, colorspace: AgX Resolve Bombastic AdobeRGB}
    - !<View> {name: AgX NR2383, colorspace: AgX NR2383 AdobeRGB}
    - !<View> {name: JP2499DRT, colorspace: 2499DRT Base AdobeRGB}
    - !<View> {name: TCAMv2, colorspace: TCAMv2 AdobeRGB}
    - !<View> {name: OpenDRT, colorspace: OpenDRT AdobeRGB}
    - !<View> {name: JzDT, colorspace: JzDT AdobeRGB}
    - !<View> {name: ACES, colorspace: ACES AdobeRGB}
    - !<View> {name: ACES Reference GamutComp, colorspace: ACES LMT AdobeRGB}
    - !<View> {name: UnrealEngine, colorspace: UnrealEngine Viewport AdobeRGB}
    - !<View> {name: Khronos Neutral, colorspace: Khronos Neutral AdobeRGB}
    - !<View> {name: ARRI K1S1, colorspace: ARRI K1S1 AdobeRGB}
    - !<View> {name: ARRI ALF2, colorspace: ARRI ALF2 AdobeRGB}
    - !<View> {name: ARRI Reveal, colorspace: ARRI Reveal AdobeRGB}
    - !<View> {name: RED IPP2, colorspace: RED IPP2 AdobeRGB}
    - !<View> {name: Sony S-Cinetone, colorspace: Sony S-Cinetone AdobeRGB}
    - !<View> {name: Blackmagic Extended Video, colorspace: Blackmagic Extended Video AdobeRGB}
    - !<View> {name: Canon 201911, colorspace: Canon 201911 AdobeRGB}
    - !<View> {name: False Color, colorspace: AgX False Color Rec.709}
    - !<View> {name: None, colorspace: Non-Color}
  Rec.2020:
    - !<View> {name: ACES, colorspace: ACES Rec.2020}
    - !<View> {name: ACES Reference GamutComp, colorspace: ACES LMT Rec.2020}
    - !<View> {name: AgX Punchy, colorspace: AgX Base Rec.2020, look: AgX - Punchy}
    - !<View> {name: AgX Medium High Contrast, colorspace: AgX Base Rec.2020, look: AgX - Medium High Contrast}
    - !<View> {name: AgX, colorspace: AgX Base Rec.2020}
    - !<View> {name: AgX-Resolve Default, colorspace: AgX Resolve Default Rec.2020}
    - !<View> {name: AgX-Resolve Bombastic, colorspace: AgX Resolve Bombastic Rec.2020}
    - !<View> {name: AgX NR2383, colorspace: AgX NR2383 Rec.2020}
    - !<View> {name: JP2499DRT, colorspace: 2499DRT Base Rec.2020}
    - !<View> {name: TCAMv2, colorspace: TCAMv2 Rec.2020}
    - !<View> {name: OpenDRT, colorspace: OpenDRT Rec.2020}
    - !<View> {name: JzDT, colorspace: JzDT Rec.2020}
    - !<View> {name: Rec.2020, colorspace: Rec.2020}
    - !<View> {name: UnrealEngine, colorspace: UnrealEngine Viewport Rec.2020}
    - !<View> {name: ARRI ALF2, colorspace: ARRI ALF2 Rec.2020}
    - !<View> {name: ARRI Reveal, colorspace: ARRI Reveal Rec.2020}
    - !<View> {name: RED IPP2, colorspace: RED IPP2 Rec.2020}
    - !<View> {name: Sony S-Cinetone, colorspace: Sony S-Cinetone Rec.2020}
    - !<View> {name: Blackmagic Extended Video, colorspace: Blackmagic Extended Video Rec.2020}
    - !<View> {name: Canon 201911, colorspace: Canon 201911 Rec.2020}
    - !<View> {name: False Color, colorspace: AgX False Color Rec.2020}
    - !<View> {name: None, colorspace: Non-Color}
  Rec.2100PQ(1000):
    - !<View> {name: Standard, colorspace: Rec.2100}
    - !<View> {name: Standard (1000 Limited), colorspace: Rec.2100(1000nit Limit)}
    - !<View> {name: AgX, colorspace: AgX Base Rec.2100-PQ 1000 nits}
    - !<View> {name: TCAMv2, colorspace: TCAMv2 Rec.2100PQ(1000)}
    - !<View> {name: ACES, colorspace: ACES Rec.2100PQ(1000)}
    - !<View> {name: ACES Reference GamutComp, colorspace: ACES LMT Rec.2100PQ(1000)}
    - !<View> {name: ARRI ALF2, colorspace: ARRI ALF2 Rec.2100PQ(1000)}
    - !<View> {name: ARRI Reveal, colorspace: ARRI Reveal Rec.2100PQ(1000)}
    - !<View> {name: RED IPP2, colorspace: RED IPP2 Rec.2100PQ(1000)}
    - !<View> {name: Canon 201911, colorspace: Canon 201911 Rec.2100PQ(1000)}
    - !<View> {name: False Color, colorspace: AgX False Color Rec.2100}
    - !<View> {name: None, colorspace: Non-Color}
  Log:
    - !<View> {name: AgX Log, colorspace: AgX Log}
    - !<View> {name: AgX Kraken Log, colorspace: AgX Log Kraken}
    - !<View> {name: JP2499 Log, colorspace: 2499DRT Log (2499)}
    - !<View> {name: Filmic Log, colorspace: Filmic Log}
    - !<View> {name: DaVinci Intermidiate, colorspace: DaVinci Intermidiate WideGamut Log}
    - !<View> {name: Filmlight T-Log - E-Gamut, colorspace: T-Log - E-Gamut}
    - !<View> {name: ACEScc, colorspace: ACEScc}
    - !<View> {name: ACEScct, colorspace: ACEScct}
    - !<View> {name: None, colorspace: Non-Color}
  Camera Log:
    - !<View> {name: ARRI LogC3, colorspace: ARRI LogC3}
    - !<View> {name: ARRI LogC4, colorspace: ARRI LogC4}
    - !<View> {name: BMDFilm Gen5, colorspace: BMDFilm WideGamut Gen5 Log}
    - !<View> {name: CanonLog2, colorspace: CanonLog2 CinemaGamut D55}
    - !<View> {name: CanonLog3, colorspace: CanonLog3 CinemaGamut D55}
    - !<View> {name: V-Log V-Gamut, colorspace: V-Log V-Gamut}
    - !<View> {name: Log3G10 RWG, colorspace: Log3G10 REDWideGamutRGB}
    - !<View> {name: S-Log2 ITU-709, colorspace: S-Log2 ITU 709 Matrix}
    - !<View> {name: S-Log2 S-Gamut, colorspace: S-Log2 S-Gamut}
    - !<View> {name: S-Log3 S-Gamut3, colorspace: S-Log3 S-Gamut3}
    - !<View> {name: S-Log3 S-Gamut3.Cine, colorspace: S-Log3 S-Gamut3.Cine}
    - !<View> {name: S-Log3 Venice S-Gamut3, colorspace: S-Log3 Venice S-Gamut3}
    - !<View> {name: S-Log3 Venice S-Gamut3.Cine, colorspace: S-Log3 Venice S-Gamut3.Cine}
    - !<View> {name: F-Log F-Gamut, colorspace: F-Log F-Gamut}
    - !<View> {name: F-Log2 F-Gamut, colorspace: F-Log2 F-Gamut}
    - !<View> {name: D-Log D-Gamut, colorspace: D-Log D-Gamut}
    - !<View> {name: ProTune Log, colorspace: ProTune Log}
    - !<View> {name: Apple Log, colorspace: Apple Log}
    - !<View> {name: N-Log, colorspace: N-Log}
    - !<View> {name: None, colorspace: Non-Color}
    
# active_displays: [sRGB, Display P3, Rec.1886, AdobeRGB, Rec.2020, Rec.2100PQ(1000), Log, Camera Log]

active_displays: [sRGB, Display P3, Rec.1886, Rec.2020, Log]

# active_views: [Standard, AgX, AgX Kraken, AgX Kraken 800T, AgX-Resolve Default, AgX-Resolve Bombastic, AgX NR2383, JP2499DRT, Filmic, TCAMv2, OpenDRT, JzDT, ACES, ACES Reference GamutComp, UnrealEngine, Khronos Neutral, ARRI K1S1, ARRI ALF2, ARRI Reveal, RED IPP2, Sony S-Cinetone, Blackmagic Extended Video, Canon 201911, False Color, None, AgX Log, AgX Kraken Log, JP2499 Log, Filmic Log, DaVinci Intermidiate, Filmlight T-Log - E-Gamut, ACEScc, ACEScct, ARRI LogC3, ARRI LogC4, BMDFilm Gen5, CanonLog2, CanonLog3, V-Log V-Gamut, Log3G10 RWG, S-Log2 ITU-709, S-Log2 S-Gamut, S-Log3 S-Gamut3, S-Log3 S-Gamut3.Cine, S-Log3 Venice S-Gamut3, S-Log3 Venice S-Gamut3.Cine, F-Log F-Gamut, F-Log2 F-Gamut, D-Log D-Gamut, ProTune Log, N-Log, Apple Log, Standard (1000 Limited)]  

active_views: [ACES, ACES Reference GamutComp, AgX, AgX Punchy, AgX Medium High Contrast, sRGB, Display P3, Rec.1886, Rec.2020, Standard, JP2499DRT, Filmic, TCAMv2, OpenDRT, JzDT, UnrealEngine, Khronos Neutral, ARRI Reveal, RED IPP2, Sony S-Cinetone, Blackmagic Extended Video, Canon 201911, False Color, None, AgX Log, AgX Kraken Log, JP2499 Log, Filmic Log, DaVinci Intermidiate, Filmlight T-Log - E-Gamut, ACEScc, ACEScct, ARRI LogC3, ARRI LogC4, BMDFilm Gen5, CanonLog2, CanonLog3, V-Log V-Gamut, Log3G10 RWG, S-Log2 ITU-709, S-Log2 S-Gamut, S-Log3 S-Gamut3, S-Log3 S-Gamut3.Cine, S-Log3 Venice S-Gamut3, S-Log3 Venice S-Gamut3.Cine, F-Log F-Gamut, F-Log2 F-Gamut, D-Log D-Gamut, ProTune Log, N-Log, Apple Log, Standard (1000 Limited)]  


#--------------------------------------------------------------------------------------------------------------------------------------------------------------------------------------------------------

# ************* ONLY ONE INACTIVE SPACE CAN BE UN-COMMENTED AT A TIME. PICK ONE! *********************

# If you're a FUSION user comment-out ALL inactive_colorspaces!!!!

# MINIMAL - Inactive spaces with absolute minimal clutter
inactive_colorspaces: [Khronos Neutral Rec.1886, Khronos Neutral Display P3, Khronos Neutral AdobeRGB, Khronos Neutral sRGB, AgX Base Kraken 800T sRGB, AgX Base Kraken 800T Rec.1886, AgX Base Kraken 800T Display P3, AgX Base Kraken 800T AdobeRGB, Blackmagic Extended Video sRGB, Blackmagic Extended Video Rec.1886, Blackmagic Extended Video Rec.2020, Blackmagic Extended Video Display P3, Blackmagic Extended Video AdobeRGB, Sony S-Cinetone sRGB, Sony S-Cinetone Rec.1886, Sony S-Cinetone Display P3, Sony S-Cinetone Display P3, Sony S-Cinetone Rec.2020, Sony S-Cinetone AdobeRGB, ARRI K1S1 Display P3, 2499DRT Log (2499), AgX Log SB2383 Nihal, AgX NR2383 sRGB, AgX NR2383 Rec.1886, AgX NR2383 AdobeRGB, AgX NR2383 Display P3, AgX NR2383 Rec.2020, 2499DRT Base sRGB, 2499DRT Base Rec.1886, 2499DRT Base Display P3, 2499DRT Base AdobeRGB, 2499DRT Base Rec.2020, Legacy Display P3, AgX Resolve Default AdobeRGB, AgX Resolve Bombastic AdobeRGB, TCAMv2 AdobeRGB, OpenDRT AdobeRGB, JzDT AdobeRGB, ACES AdobeRGB, ACES LMT AdobeRGB, UnrealEngine Viewport AdobeRGB, ARRI K1S1 AdobeRGB, ARRI ALF2 AdobeRGB, ARRI Reveal AdobeRGB, RED IPP2 AdobeRGB, Canon 201911 AdobeRGB, AgX Base Kraken AdobeRGB, AgX Base AdobeRGB, AdobeRGB Piecewise 2.2, AdobeRGB EOTF 2.2, Linear ProPhoto RGB, Linear Adobe RGB (1998), AgX Base Kraken Rec.1886, AgX Base Kraken Display P3, AgX Base Kraken sRGB, Display P3 EOTF 2.2, AgX Log Kraken, ACES LMT sRGB, ACES LMT Rec.1886, ACES LMT Display P3, ACES LMT Rec.2020, ACES LMT Rec.2100PQ(1000), UnrealEngine Viewport sRGB, UnrealEngine Viewport Rec.1886, UnrealEngine Viewport Display P3, UnrealEngine Viewport Rec.2020, JzDT Rec.2020, JzDT sRGB, JzDT Rec.1886, JzDT Display P3,OpenDRT Display P3, OpenDRT Rec.1886, OpenDRT sRGB, OpenDRT Rec.2020, AgX Resolve Bombastic sRGB, AgX Resolve Bombastic Rec.2020, AgX Resolve Bombastic Display P3, AgX Resolve Bombastic Rec.1886, AgX Resolve Default sRGB, AgX Resolve Default Rec.2020, AgX Resolve Default Display P3, AgX Resolve Default Rec.1886, DCI-P3 D65 2.6, Linear DCI-P3 DCI, Linear CIE-XYZ DCI, AgX Base Rec.2100-HLG, AgX Base Rec.2100-PQ 1000 nits, AgX Base Rec.2100-PQ 1000 nits, Rec.2100-HLG, Rec.2100-PQ 1000 nits limited, DCI-P3 2.6, Filmic Log, ACEScct, ACEScc, DaVinci Intermidiate WideGamut Log, T-Log - E-Gamut, N-Log, ProTune Log, D-Log D-Gamut, F-Log2 F-Gamut, F-Log F-Gamut, Apple Log, S-Log3 Venice S-Gamut3.Cine, S-Log3 Venice S-Gamut3, S-Log3 S-Gamut3.Cine, S-Log3 S-Gamut3, S-Log2 S-Gamut, S-Log2 ITU 709 Matrix, Log3G10 REDWideGamutRGB, V-Log V-Gamut, CanonLog3 CinemaGamut D55, CanonLog2 CinemaGamut D55, ARRI LogC3, ARRI LogC4, BMDFilm WideGamut Gen5 Log, TCAMv2 Rec.2100PQ(1000), TCAMv2 Rec.2020, TCAMv2 Display P3, TCAMv2 Rec.1886, TCAMv2 sRGB, Linear Venice S-Gamut3, Linear S-Gamut3.Cine, Filmic sRGB, ARRI K1S1 Rec.1886, ARRI K1S1 sRGB, ARRI ALF2 Rec.2100PQ(1000), ARRI ALF2 Rec.1886, ARRI ALF2 sRGB, ACES Rec.1886, ACES Rec.2100PQ(1000), ACES sRGB, BT.2020 2.4 I-E, BT.2020 2.4 I-E, Rec.2100(1000nit Limit), Display P3, Display P3 2.2 I-E, sRGB 2.2 I-E, Canon 201911 Rec.2100PQ(1000), Canon 201911 Rec.2020, Canon 201911 Display P3, Canon 201911 Rec.1886, Canon 201911 sRGB, RED IPP2 Rec.2100PQ(1000), RED IPP2 Rec.2020, RED IPP2 Display P3, RED IPP2 Rec.1886, RED IPP2 sRGB, ARRI Reveal Rec.2100PQ(1000), ARRI Reveal Rec.2020, ARRI Reveal Display P3, ARRI Reveal Rec.1886, ARRI Reveal sRGB, ARRI ALF2 Rec.2020, ARRI ALF2 Display P3, ARRI ALF2 sRGB, ACES Rec.2020, ACES Display P3, AgX Base Rec.1886, AgX Base Display P3, AgX Base Rec.2020, Linear ProTune, Linear F-Gamut, Linear D-Gamut, Linear Venice S-Gamut3.Cine, Linear S-Gamut3, Linear S-Gamut, Linear REDWideGamutRGB, Linear V-Gamut, Linear CinemaGamut D55, Linear BMD WideGamut Gen5, Linear ARRI Wide Gamut 4, Linear ARRI Wide Gamut 3, Linear DaVinci WideGamut, Linear FilmLight E-Gamut, Linear BT.2020 I-E, Linear DCI-P3 D65, Linear DCI-P3 I-E, Linear BT.709 I-E, Linear CIE-XYZ D65, Linear CIE-XYZ E, Luminance Compensation Rec.2020, Luminance Compensation sRGB, Luminance Compensation P3, AgX False Color Rec.709, AgX False Color P3, AgX False Color Rec.2020, AgX False Color Rec.2100]

# CG - Inactive spaces with STORAGE log formats visible
